!! 00000] TT[WS
!!!OTL: Hong yun
!!!ARE: Asia, China, Shanxi Hequi
!! Ethnic Group: Han
!! WI, 259 (2)
!!!SCT: J0306
!!!YEM: Copyright 1995, estate of Helmut Schaffrath.
**kern
*ICvox
*Ivox
*M2/4
*k[b-e-]
*B-:
{8ddd
8fff
8.gg
16bb-
=1
2ff
=2
8ccc
8ddd
8bb-
16aa
16gg
=3
2ff}
=4
{8ff
8gg
4bb-
=5
8ddd
8aa
8gg
8ff
=6
8bb-
8bb-
8dd
8gg
=7
2ff}
=8
{8ff
8gg
4bb-
=9
8ddd
8ddd
8ccc
8ddd
=10
8ff
8dd
8ff
8aa
=11
8gg
8ff
4dd}
=12
{8.cc
16dd
8ff
8aa
=13
8gg
8ff
8dd
8cc
=14
8ddd
8aa
16ddd
16fff
16ddd
16ccc
=15
2bb-}
=16
{8fff
16ccc
16ddd
8aa
8gg
=17
2ff}
=18
{8.cc
16dd
8ff
8aa
=19
8gg
8ff
8dd
8cc
=20
8ddd
8aa
16ddd
16fff
16ddd
16ccc
=21
2bb-}
==
!!!AGN: Xiaodiao, Fengsuge
!!!ONB: ESAC (Essen Associative Code) Database: CHINA
!!!AMT: simple duple
!!!AIN: vox
!!!EED: Helmut Schaffrath
!!!EEV: 1.0
*-
